packages/kaspersky-hexa-ui-icons/src/iconsSVGs/24/LocationSolid.svg

<svg xmlns="http://www.w3.org/2000/svg" width="24" height="24" fill="none" viewBox="0 0 24 24"><path fill="#000" fill-rule="evenodd" d="M13.8029 20.9975a27 27 0 0 1-.8268.7342c-.1162.0989-.5971.4886-.9496.4886-.3525-.0001-.6681-.2492-.9496-.4886a27 27 0 0 1-.8268-.7342c-.6798-.6278-1.5884-1.5251-2.4999-2.6011C5.9711 16.296 4 13.3061 4 10.2166 4 5.7041 7.5686 2 12.0265 2s8.0265 3.704 8.0265 8.2166c0 3.0895-1.9711 6.0794-3.7502 8.1798-.9115 1.076-1.8201 1.9733-2.4999 2.6011M14 10c0 1.1046-.8954 2-2 2s-2-.8954-2-2 .8954-2 2-2 2 .8954 2 2"/></svg>

<svg width="24" height="24" viewBox="0 0 24 24" fill="none" xmlns="http://www.w3.org/2000/svg">
<path fill-rule="evenodd" clip-rule="evenodd" d="M13.8029 20.9975C13.4623 21.3121 13.1774 21.5606 12.9761 21.7317C12.8599 21.8306 12.379 22.2203 12.0265 22.2203C11.674 22.2202 11.3584 21.9711 11.0769 21.7317C10.8756 21.5606 10.5907 21.3121 10.2501 20.9975C9.57028 20.3697 8.66166 19.4724 7.7502 18.3964C5.97107 16.296 4 13.3061 4 10.2166C4 5.70405 7.56858 2 12.0265 2C16.4844 2 20.053 5.70405 20.053 10.2166C20.053 13.3061 18.0819 16.296 16.3028 18.3964C15.3913 19.4724 14.4827 20.3697 13.8029 20.9975ZM14 10C14 11.1046 13.1046 12 12 12C10.8954 12 10 11.1046 10 10C10 8.89543 10.8954 8 12 8C13.1046 8 14 8.89543 14 10Z" fill="black"/>
</svg>
